korla/apps/scalable/hotspot.svg

<svg width="48" height="48" xmlns="http://www.w3.org/2000/svg">
 <path d="m25.050781 6.0070947c-.273292.2885485-.498755.5603126-.740234.8378906.431637-.514724.740234-.8378906.740234-.8378906zm0 0c-8.413575 6.8530433-6.277728 15.9849203-3.873047 21.1914063-2.218661.461965-4.181373 1.743936-5.496093 3.589844l.02734-.167969.01367-.01953-.0098-.0039v-.002c0-1.108492-.533396-1.758009-1.199219-2.578125.120137 1.873781-.691426 2.899399-.478516 4.6875.03722.312554.164446.570945.314453.818359-.226087.79679-.341105 1.620975-.341797 2.449219-.533114-.713164-.994395-1.476446-.867187-2.316406-.490619 2.671187.355435 5.468558 2.023437 7.730468.0014.0019.0025.004.0039.0059.237927.322244.491221.631581.761719.929687.0031.0034.0067.0064.0098.0098.266251.292746.544843.572289.839844.83789.01678.01516.03391.02986.05078.04492.285766.254339.580737.497135.890625.722657.03369.02462.06955.04606.103516.07031.297935.211917.602401.413311.919922.595703.05194.02996.10772.05291.160156.08203.310149.171533.622959.335797.949219.476563.03838.01664.0786.02873.117187.04492 1.063989.444295 2.20526.718789 3.394531.777343.03891.0019.07623.01026.115235.01172.0026.000098.0052-.000095.0078 0 .07088.0026.141697.0029.212891.0039.319049.0047.642131-.01492.966797-.04297.03148-.0027.06223-.000947.09375-.0039.538581-.05057 1.08169-.134242 1.630859-.279296 4.584044-1.127905 7.519235-4.204925 8.828125-7.833985.000209-.00058-.000209-.0014 0-.002.000212-.000587-.000211-.0014 0-.002.16239-.450649.303829-.908016.416016-1.373047.06301-.261177.114376-.522816.160156-.785156-.000008-.000644.000008-.0013 0-.002.380067-2.179863.186506-4.379628-.289063-6.257813-.434074-1.714359-1.320462-3.522741-2.654296-5.183594-2.12289-2.643369-4.682254-4.180444-6.634766-5.914062-.200763-2.338545-.316341-4.49075-.279297-6.935547.0074-.490045.28971-1.364121.376953-1.8496095-.524716.9971825-1.1597 1.5214895-1.580078 2.5351565-.343345.827916-.672075 2.12981-.919922 3.1875-.0666-.148121-.136691-.29343-.193359-.449219-.762464-3.431042 1.106721-7.955321 1.427759-8.8006673z" opacity=".2"/>
 <path d="m23.935547 6.8066406c-2.947346 2.9921035-4.197308 6.2657034-4.378906 9.4355474-.21043 3.673103.894908 7.186855 2.074218 9.740234a.50005.50005 0 0 1 -.351562.699219c-2.095548.43633-3.947687 1.647145-5.189453 3.390625a.50005.50005 0 0 1 -.902344-.371094l.021484-.13086c-.003299-.499434-.136317-.880489-.349609-1.24414-.058753.379804-.058293.839898-.132813 1.169922-.160362.710163-.291622 1.333736-.195312 2.142578.025226.211835.111121.39457.246094.617187a.50005.50005 0 0 1 .052734.396485c-.213527.752525-.321611 1.530268-.322266 2.3125a.50005.50005 0 0 1 -.90039.298828c-.00929-.01243-.016091-.028506-.025391-.041016.664629 5.450118 6.398407 10.619123 12.683594 8.958985a.50005.50005 0 0 1 .007813-.001953c4.978548-1.224973 7.899078-4.788354 8.876953-8.841797.562776-2.332797.389457-4.7652-.126953-6.804688-.414857-1.638456-1.269949-3.387122-2.560547-4.994141-2.059291-2.564177-4.571167-4.073288-6.576172-5.853515a.50005.50005 0 0 1 -.166016-.330078c-.188069-2.19073-.277549-4.252623-.261719-6.517578-.074812.133556-.199008.26481-.261718.416015-.315554.760903-.648297 2.058567-.894532 3.109375a.50005.50005 0 0 1 -.943359.091797c-.062949-.140002-.139231-.29798-.207031-.484375a.50005.50005 0 0 1 -.017578-.060547c-.410089-1.84545-.11133-3.894549.310546-5.5996091.181861-.735006.299795-.9413058.490235-1.5039063zm-7.808594 22.4082034c-.002086.002482-.003776.005327-.005859.007812.006896.038692.023939.07007.027344.111328a.50005.50005 0 0 1 .064453.166016v-.25zm.023438.636718a.50005.50005 0 0 1 -.017579.029297l.019532-.029297z" fill="#ff7d20"/>
 <path d="m25.049989 5.0000002s-4.183887 4.3048483-3.829823 7.6322178c.288311 2.709445 5.715797 11.485755 7.439664 16.983715l-5.19383.473715c-1.563885-1.824714-10.015195-15.641855 1.583989-25.0896478z" fill="#ff7d20"/>
 <path d="m14.513721 27.009584c.120137 1.873781-.690815 2.899726-.477905 4.687827.09139.767513.66694 1.242222 1.018971 1.897589l.235795-1.438631c.01944-.112142.03654-.222072.05544-.33685l.362114-2.206367.01544-.01894-.01122-.0042v-.0014c0-1.108492-.532802-1.758894-1.198625-2.57901z" fill="#d83b2f"/>
 <circle transform="matrix(.99252028 -.12207987 .12207987 .99252028 0 0)" cx="18.555" cy="37.546" r="9" fill="#ffb832"/>
 <path d="m26.317053 8.5263978c-.524716.9971823-1.160162 1.5227462-1.58054 2.5364132-.560206 1.350839-1.235513 4.561113-1.235513 4.561113l1.346698 2.050147 1.489249.985987c-.27747-2.895229-.442212-5.373385-.398118-8.283426.0074-.4900451.290981-1.3647461.378224-1.8502342z" fill="#ff7d20"/>
 <path d="m25.050781 5c-7.338323 7.747987-2.965018 11.431633.07422 16.927734.798083 1.506139 1.759238 3.9686 1.916016 5.035157 2.100325 1.058634 3.750003 2.923403 4.505859 5.240234.01811.05197.03557.103333.05273.15625.0418.13663.07583.276421.111329.416016.04522.172054.09149.342148.125.523437.0015.008.0044.01544.0059.02344.03599.190698.06777.382788.0918.578125.01059.08609.005.156012.01172.238281.0019.029.0023.05868.0039.08789.01791.275221.01522.532043-.0098.765626-.02198.450461-.07028.915239-.183594 1.410156-.929265 3.418695-3.732727 5.538706-6.476562 6.15625-3.866966.662823-7.127164-1.393486-7.912109-4.28125-.153252-.952317.08629-2.231694.638671-2.554688-.318979.109387-.706707.233712-1.171875.666016-.783373.72803-.503301.986894-1.527343 1.269531.519697-1.44374-2.467585-3.018492-2.166016-5.009765-.491881 2.67806.344966 5.492615 2.021573 7.757528 2.454813 3.316185 6.709862 4.958722 11.23038 3.764694 5.154691-1.268312 8.228144-4.504116 9.244141-8.715582.586705-2.431985.404032-4.940162-.128907-7.044922-.434076-1.714361-1.320464-3.522743-2.654298-5.183596-3.366627-4.19204-7.838819-5.599938-9.230469-9.425781-.762489-3.431156 1.106696-7.9554347 1.427734-8.800781z" fill="#db3f2e"/>
 <path d="m31.931641 25.382812 1.074218 2.371094c.01983.0566.039414.113023.058594.169922l.494141 1.800781c.538196 2.546145.462475 5.203825-.322266 7.28125-1.132461 2.997936-3.003184 5.341981-5.591797 6.41211-4.53056 1.872927-10.419826.394577-12.851562-4.341797.09729.444005.220902.87788.371093 1.302734 2.45279 3.326128 6.700075 5.48323 11.228516 4.28711 5.154691-1.268312 8.228144-4.999472 9.244141-9.210938.063007-.261177.114376-.522816.160156-.785156-.000008-.000644.000008-.001309 0-.001953-.006446-.493594-.033704-.990064-.095703-1.490235-.180656-1.435962-.595459-2.816168-1.208984-4.103515l.011718-.007813-.105468-.18164c-.283524-.572063-.605294-1.124811-.966797-1.654297l-.052735-.091797z" fill="#ff7d20"/>
 <path d="m22.798828 26.001953a9 9 0 0 0 -.898437.064453 9 9 0 0 0 -7.878907 9.417969 9 9 0 0 1 7.878907-8.417969 9 9 0 0 1 10.033203 7.833985 9 9 0 0 1 .044922.615234 9 9 0 0 0 -.044922-1.615234 9 9 0 0 0 -9.134766-7.898438z" fill="#fff" opacity=".2"/>
</svg>

<svg xmlns="http://www.w3.org/2000/svg" width="48" height="48" version="1">
 <path style="opacity:0.2" d="m 25.050781,6.0070947 c -0.273292,0.2885485 -0.498755,0.5603126 -0.740234,0.8378906 0.431637,-0.514724 0.740234,-0.8378906 0.740234,-0.8378906 z m 0,0 c -8.413575,6.8530433 -6.277728,15.9849203 -3.873047,21.1914063 -2.218661,0.461965 -4.181373,1.743936 -5.496093,3.589844 l 0.02734,-0.167969 0.01367,-0.01953 -0.0098,-0.0039 v -0.002 c 0,-1.108492 -0.533396,-1.758009 -1.199219,-2.578125 0.120137,1.873781 -0.691426,2.899399 -0.478516,4.6875 0.03722,0.312554 0.164446,0.570945 0.314453,0.818359 -0.226087,0.79679 -0.341105,1.620975 -0.341797,2.449219 -0.533114,-0.713164 -0.994395,-1.476446 -0.867187,-2.316406 -0.490619,2.671187 0.355435,5.468558 2.023437,7.730468 0.0014,0.0019 0.0025,0.004 0.0039,0.0059 0.237927,0.322244 0.491221,0.631581 0.761719,0.929687 0.0031,0.0034 0.0067,0.0064 0.0098,0.0098 0.266251,0.292746 0.544843,0.572289 0.839844,0.83789 0.01678,0.01516 0.03391,0.02986 0.05078,0.04492 0.285766,0.254339 0.580737,0.497135 0.890625,0.722657 0.03369,0.02462 0.06955,0.04606 0.103516,0.07031 0.297935,0.211917 0.602401,0.413311 0.919922,0.595703 0.05194,0.02996 0.10772,0.05291 0.160156,0.08203 0.310149,0.171533 0.622959,0.335797 0.949219,0.476563 0.03838,0.01664 0.0786,0.02873 0.117187,0.04492 1.063989,0.444295 2.20526,0.718789 3.394531,0.777343 0.03891,0.0019 0.07623,0.01026 0.115235,0.01172 0.0026,9.8e-5 0.0052,-9.5e-5 0.0078,0 0.07088,0.0026 0.141697,0.0029 0.212891,0.0039 0.319049,0.0047 0.642131,-0.01492 0.966797,-0.04297 0.03148,-0.0027 0.06223,-9.47e-4 0.09375,-0.0039 0.538581,-0.05057 1.08169,-0.134242 1.630859,-0.279296 4.584044,-1.127905 7.519235,-4.204925 8.828125,-7.833985 2.09e-4,-5.8e-4 -2.09e-4,-0.0014 0,-0.002 2.12e-4,-5.87e-4 -2.11e-4,-0.0014 0,-0.002 0.16239,-0.450649 0.303829,-0.908016 0.416016,-1.373047 0.06301,-0.261177 0.114376,-0.522816 0.160156,-0.785156 -8e-6,-6.44e-4 8e-6,-0.0013 0,-0.002 0.380067,-2.179863 0.186506,-4.379628 -0.289063,-6.257813 -0.434074,-1.714359 -1.320462,-3.522741 -2.654296,-5.183594 -2.12289,-2.643369 -4.682254,-4.180444 -6.634766,-5.914062 -0.200763,-2.338545 -0.316341,-4.49075 -0.279297,-6.935547 0.0074,-0.490045 0.28971,-1.364121 0.376953,-1.8496095 -0.524716,0.9971825 -1.1597,1.5214895 -1.580078,2.5351565 -0.343345,0.827916 -0.672075,2.12981 -0.919922,3.1875 -0.0666,-0.148121 -0.136691,-0.29343 -0.193359,-0.449219 -0.762464,-3.431042 1.106721,-7.955321 1.427759,-8.8006673 z"/>
 <path style="fill:#ff7d20" d="M 23.935547 6.8066406 C 20.988201 9.7987441 19.738239 13.072344 19.556641 16.242188 C 19.346211 19.915291 20.451549 23.429043 21.630859 25.982422 A 0.50005 0.50005 0 0 1 21.279297 26.681641 C 19.183749 27.117971 17.33161 28.328786 16.089844 30.072266 A 0.50005 0.50005 0 0 1 15.1875 29.701172 L 15.208984 29.570312 C 15.205685 29.070878 15.072667 28.689823 14.859375 28.326172 C 14.800622 28.705976 14.801082 29.16607 14.726562 29.496094 C 14.5662 30.206257 14.43494 30.82983 14.53125 31.638672 C 14.556476 31.850507 14.642371 32.033242 14.777344 32.255859 A 0.50005 0.50005 0 0 1 14.830078 32.652344 C 14.616551 33.404869 14.508467 34.182612 14.507812 34.964844 A 0.50005 0.50005 0 0 1 13.607422 35.263672 C 13.598132 35.251242 13.591331 35.235166 13.582031 35.222656 C 14.24666 40.672774 19.980438 45.841779 26.265625 44.181641 A 0.50005 0.50005 0 0 1 26.273438 44.179688 C 31.251986 42.954715 34.172516 39.391334 35.150391 35.337891 C 35.713167 33.005094 35.539848 30.572691 35.023438 28.533203 C 34.608581 26.894747 33.753489 25.146081 32.462891 23.539062 C 30.4036 20.974885 27.891724 19.465774 25.886719 17.685547 A 0.50005 0.50005 0 0 1 25.720703 17.355469 C 25.532634 15.164739 25.443154 13.102846 25.458984 10.837891 C 25.384172 10.971447 25.259976 11.102701 25.197266 11.253906 C 24.881712 12.014809 24.548969 13.312473 24.302734 14.363281 A 0.50005 0.50005 0 0 1 23.359375 14.455078 C 23.296426 14.315076 23.220144 14.157098 23.152344 13.970703 A 0.50005 0.50005 0 0 1 23.134766 13.910156 C 22.724677 12.064706 23.023436 10.015607 23.445312 8.3105469 C 23.627173 7.5755409 23.745107 7.3692411 23.935547 6.8066406 z M 16.126953 29.214844 C 16.124867 29.217326 16.123177 29.220171 16.121094 29.222656 C 16.12799 29.261348 16.145033 29.292726 16.148438 29.333984 A 0.50005 0.50005 0 0 1 16.212891 29.5 L 16.212891 29.25 L 16.126953 29.214844 z M 16.150391 29.851562 A 0.50005 0.50005 0 0 1 16.132812 29.880859 L 16.152344 29.851562 L 16.150391 29.851562 z"/>
 <path style="fill:#ff7d20" d="m 25.049989,5.0000002 c 0,0 -4.183887,4.3048483 -3.829823,7.6322178 0.288311,2.709445 5.715797,11.485755 7.439664,16.983715 L 23.466,30.089648 C 21.902115,28.264934 13.450805,14.447793 25.049989,5.0000002 Z"/>
 <path style="fill:#d83b2f" d="m 14.513721,27.009584 c 0.120137,1.873781 -0.690815,2.899726 -0.477905,4.687827 0.09139,0.767513 0.66694,1.242222 1.018971,1.897589 l 0.235795,-1.438631 c 0.01944,-0.112142 0.03654,-0.222072 0.05544,-0.33685 l 0.362114,-2.206367 0.01544,-0.01894 -0.01122,-0.0042 v -0.0014 c 0,-1.108492 -0.532802,-1.758894 -1.198625,-2.57901 z"/>
 <circle style="fill:#ffb832" cx="18.555" cy="37.546" r="9" transform="rotate(-7.0121532)"/>
 <path style="fill:#ff7d20" d="M 26.317053,8.5263978 C 25.792337,9.5235801 25.156891,10.049144 24.736513,11.062811 24.176307,12.41365 23.501,15.623924 23.501,15.623924 l 1.346698,2.050147 1.489249,0.985987 c -0.27747,-2.895229 -0.442212,-5.373385 -0.398118,-8.283426 0.0074,-0.4900451 0.290981,-1.3647461 0.378224,-1.8502342 z"/>
 <path style="fill:#db3f2e" d="m 25.050781,5 c -7.338323,7.747987 -2.965018,11.431633 0.07422,16.927734 0.798083,1.506139 1.759238,3.9686 1.916016,5.035157 2.100325,1.058634 3.750003,2.923403 4.505859,5.240234 0.01811,0.05197 0.03557,0.103333 0.05273,0.15625 0.0418,0.13663 0.07583,0.276421 0.111329,0.416016 0.04522,0.172054 0.09149,0.342148 0.125,0.523437 0.0015,0.008 0.0044,0.01544 0.0059,0.02344 0.03599,0.190698 0.06777,0.382788 0.0918,0.578125 0.01059,0.08609 0.005,0.156012 0.01172,0.238281 0.0019,0.029 0.0023,0.05868 0.0039,0.08789 0.01791,0.275221 0.01522,0.532043 -0.0098,0.765626 -0.02198,0.450461 -0.07028,0.915239 -0.183594,1.410156 -0.929265,3.418695 -3.732727,5.538706 -6.476562,6.15625 -3.866966,0.662823 -7.127164,-1.393486 -7.912109,-4.28125 -0.153252,-0.952317 0.08629,-2.231694 0.638671,-2.554688 -0.318979,0.109387 -0.706707,0.233712 -1.171875,0.666016 -0.783373,0.72803 -0.503301,0.986894 -1.527343,1.269531 0.519697,-1.44374 -2.467585,-3.018492 -2.166016,-5.009765 -0.491881,2.67806 0.344966,5.492615 2.021573,7.757528 2.454813,3.316185 6.709862,4.958722 11.23038,3.764694 5.154691,-1.268312 8.228144,-4.504116 9.244141,-8.715582 0.586705,-2.431985 0.404032,-4.940162 -0.128907,-7.044922 C 35.073738,26.695797 34.18735,24.887415 32.853516,23.226562 29.486889,19.034522 25.014697,17.626624 23.623047,13.800781 22.860558,10.369625 24.729743,5.8453463 25.050781,5 Z"/>
 <path style="fill:#ff7d20" d="M 31.931641 25.382812 L 33.005859 27.753906 C 33.025689 27.810506 33.045273 27.866929 33.064453 27.923828 L 33.558594 29.724609 C 34.09679 32.270754 34.021069 34.928434 33.236328 37.005859 C 32.103867 40.003795 30.233144 42.34784 27.644531 43.417969 C 23.113971 45.290896 17.224705 43.812546 14.792969 39.076172 C 14.890259 39.520177 15.013871 39.954052 15.164062 40.378906 C 17.616852 43.705034 21.864137 45.862136 26.392578 44.666016 C 31.547269 43.397704 34.620722 39.666544 35.636719 35.455078 C 35.699726 35.193901 35.751095 34.932262 35.796875 34.669922 C 35.796867 34.669278 35.796883 34.668613 35.796875 34.667969 C 35.790429 34.174375 35.763171 33.677905 35.701172 33.177734 C 35.520516 31.741772 35.105713 30.361566 34.492188 29.074219 L 34.503906 29.066406 L 34.398438 28.884766 C 34.114914 28.312703 33.793144 27.759955 33.431641 27.230469 L 33.378906 27.138672 L 31.931641 25.382812 z"/>
 <path style="opacity:0.2;fill:#ffffff" d="M 22.798828 26.001953 A 9 9 0 0 0 21.900391 26.066406 A 9 9 0 0 0 14.021484 35.484375 A 9 9 0 0 1 21.900391 27.066406 A 9 9 0 0 1 31.933594 34.900391 A 9 9 0 0 1 31.978516 35.515625 A 9 9 0 0 0 31.933594 33.900391 A 9 9 0 0 0 22.798828 26.001953 z"/>
</svg>
